src/6shared/assets/icons/outline-user.svg

<svg viewBox="0 0 16 16" xmlns="http://www.w3.org/2000/svg"><path clip-rule="evenodd" d="m6 4c0-1.10457.89543-2 2-2s2 .89543 2 2-.89543 2-2 2-2-.89543-2-2zm2-4c-2.20914 0-4 1.79086-4 4s1.79086 4 4 4c2.2091 0 4-1.79086 4-4s-1.7909-4-4-4zm-3 9c-1.0969 0-2.12458.48509-2.86461 1.3073-.73691.8188-1.13539 1.9088-1.13539 3.026v1.6667c0 .5523.44772 1 1 1s1-.4477 1-1v-1.6667c0-.6508.23366-1.2566.62197-1.688.38519-.428.88363-.6453 1.37803-.6453h6c.4944 0 .9928.2173 1.378.6453.3883.4314.622 1.0372.622 1.688v1.6667c0 .5523.4477 1 1 1s1-.4477 1-1v-1.6667c0-1.1172-.3985-2.2072-1.1354-3.026-.74-.82221-1.7677-1.3073-2.8646-1.3073z" fill-rule="evenodd"/></svg>

<svg viewBox="0 0 16 16" xmlns="http://www.w3.org/2000/svg">
    <path fill-rule="evenodd" clip-rule="evenodd" d="M6 4C6 2.89543 6.89543 2 8 2C9.10457 2 10 2.89543 10 4C10 5.10457 9.10457 6 8 6C6.89543 6 6 5.10457 6 4ZM8 0C5.79086 0 4 1.79086 4 4C4 6.20914 5.79086 8 8 8C10.2091 8 12 6.20914 12 4C12 1.79086 10.2091 0 8 0ZM5 9C3.9031 9 2.87542 9.48509 2.13539 10.3073C1.39848 11.1261 1 12.2161 1 13.3333V15C1 15.5523 1.44772 16 2 16C2.55228 16 3 15.5523 3 15V13.3333C3 12.6825 3.23366 12.0767 3.62197 11.6453C4.00716 11.2173 4.5056 11 5 11H11C11.4944 11 11.9928 11.2173 12.378 11.6453C12.7663 12.0767 13 12.6825 13 13.3333V15C13 15.5523 13.4477 16 14 16C14.5523 16 15 15.5523 15 15V13.3333C15 12.2161 14.6015 11.1261 13.8646 10.3073C13.1246 9.48509 12.0969 9 11 9H5Z"/>
</svg>
